Obsidian-SemiLight/actions/24s/mail-receive.svg

<svg viewBox="0 0 24 24" xmlns="http://www.w3.org/2000/svg"><path d="m10 4v1 4h-1.890625-1.1542969l-3.9550781 6.849609v1.460938 2.689453h4 10 4v-2.689453-1.460938l-3.955078-6.849609h-.044922-3v-4-1zm1 1h2v7h1v-2h2.46875l3.464844 6h-2.933594l-1 2h-8l-1-2h-2.9335938l3.4648438-6h2.46875v2h1zm-3.2421875 6.34375-.7070313.707031 4.9492188 4.949219 4.949219-4.949219-.707031-.707031-4.242188 4.242188z" fill="#4d4d4d"/></svg>

<svg xmlns="http://www.w3.org/2000/svg" viewBox="0 0 24 24">
  <defs id="defs3051">
    <style type="text/css" id="current-color-scheme">
      .ColorScheme-Text {
        color:#4d4d4d;
      }
      </style>
  </defs>
 <path style="fill:currentColor;fill-opacity:1;stroke:none" 
     d="M 10 4 L 10 5 L 10 9 L 8.109375 9 L 6.9550781 9 L 3 15.849609 L 3 17.310547 L 3 20 L 7 20 L 17 20 L 21 20 L 21 17.310547 L 21 15.849609 L 17.044922 9 L 17 9 L 14 9 L 14 5 L 14 4 L 10 4 z M 11 5 L 13 5 L 13 12 L 14 12 L 14 10 L 16.46875 10 L 19.933594 16 L 17 16 L 16 18 L 8 18 L 7 16 L 4.0664062 16 L 7.53125 10 L 10 10 L 10 12 L 11 12 L 11 5 z M 7.7578125 11.34375 L 7.0507812 12.050781 L 12 17 L 16.949219 12.050781 L 16.242188 11.34375 L 12 15.585938 L 7.7578125 11.34375 z "
     class="ColorScheme-Text"
     />
</svg>
